X: 3361
T:Gan Ainm
R:jig
M:6/8
L:1/8
K:D
FAA AFA|Bdd dfg|fed BdA|BEE EDE|!
FAA AFA|Bdd dfg|fed BdB|AFD D3:|!
|:fed BdA|BEE EDE|FAA AFA|AFA AFA|!
fed BdA|BEE Efg|fed BdB|AFD D3:|!
